X:278
T:Valse 1
A:Gascogne
O:France
M:3/4
L:1/4
Q:1/4=200
K:C
Gcd|e2e|gcd|e2e|gfe|d2d|fed|1e2c:|2c3|
|:c'3|b3|afa|g3|af/2a/2f/2a/2|geg|fed|1e2c:|2c3||
